X: 2576
T:La Counterfaitte. HSJJ.022
T:Counterfaitte,La. HSJJ.022
M:6/8
L:1/8
S:HSJ Jackson,Wyresdale,Lancs.1823
R:Jig
O:England
A:Lancashire
H:1823
Z:Chris Partington.
K:G
D|G2GG2D|A2DB2d|c2BA2G|FGAD2D|G2GG2D|!A2DB2d|c2B BAG|AGFG2:|
|:B/d/|e2G Gce|d2G GBd|!c2BA2G|FGAD2D|G2GG2D|A2DB2d|c2B BAG|AGFG2:|]
